!!!OTL: VICTORIA VICTORIA
!!!ARE: Europa, Mitteleuropa, Deutschland, Darmstadt
!!!SCT: K2244
!!!YEM: Copyright 1995, estate of Helmut Schaffrath.
**kern
*ICvox
*Ivox
*M2/4
*k[]
*C:
{8a
=1
8g
8g
8e
8a
=2
8g
8g
8e}
{8c
=3
8g
8g
8a
8a
=4
8g
8g
8e}
{8c
=5
8g
8g
8a
8a
=6
4g
8e}
{8cc
=7
4g
16e
16e
8cc
=8
4g
16e
16e
8cc
=9
4g
16e
16e}
==
!!!AGN: Kinder - Lied, Reigen, Tanz, Nachahmungs - Spiel
!!!ONB: ESAC (Essen Associative Code) Database: KINDER
!!!AMT: simple duple
!!!AIN: vox
!!!EED: Helmut Schaffrath
!!!EEV: 1.0
*-
